!!! OTL: Literature72
!!! Chapter: 5
!!! Section: II
!!! Page: 361
!!! Mode: 
!!! Encoder: ESM
**kern
*staff1
*I"Piano
=1-
*clefF4
*k[f#c#]
*D:
*M12/8
2.D\
4.AA/
4.D\
=2
8E\L
8F#\
8D\J
4E\
8E\
[4.A\
8A\]
8r
8r
=3
2.F#\
4.D\
4.BB/
=4
8C#/L
8D/
8BB/J
4C#/
8C#/
[4.F#\
8F#\]
8r
8r
=5
2.D\
4.AA/
4.D\
=6
!!linebreak:original
8E\L
8F#\
8D\J
4E\
8E\
[4.A\
8A\]
8r
8A\
=7
8A\L
8B\
8c#\J
8d\
8r
8D\
8E\L
8F#\
8G\J
8A\
8r
8AA/
=8
[4.A\
8A\L]
8G\
8E\J
4D\
8r
4.r
==
*-
